src/assets/images/arrow-right.svg

<svg fill="none" height="18" viewBox="0 0 18 18" width="18" xmlns="http://www.w3.org/2000/svg"><path d="m9.79261 16.1108 7.74719-7.74716-7.74719-7.747163-1.53409 1.534093 5.12218 5.10511h-13.3807v2.21591h13.3807l-5.12218 5.11361z" fill="#333639"/></svg>

<svg width="18" height="18" viewBox="0 0 18 18" fill="none" xmlns="http://www.w3.org/2000/svg">
<path d="M9.79261 16.1108L17.5398 8.36364L9.79261 0.616477L8.25852 2.15057L13.3807 7.25568H0V9.47159H13.3807L8.25852 14.5852L9.79261 16.1108Z" fill="#333639"/>
</svg>
